pic/icon-dark-mode.svg

<svg xmlns="http://www.w3.org/2000/svg" width="30" height="30" viewBox="0 0 30 30">
  <path fill-rule="evenodd" d="M25,0 C27.7614237,0 30,2.23857625 30,5 L30,25 C30,27.7614237 27.7614237,30 25,30 L5,30 C2.23857625,30 0,27.7614237 0,25 L0,5 C0,2.23857625 2.23857625,0 5,0 L25,0 Z M17.33775,6 C18.045375,7.22347573 18.4801875,8.62583206 18.4801875,10.1418169 C18.4801875,14.7448983 14.7496875,18.4783274 10.1439375,18.4783274 C8.628,18.4783274 7.22625,18.0429388 6,17.3375418 C7.107,21.1744742 10.6074375,24 14.802,24 C19.8825,24 24,19.8801213 24,14.800025 C24,10.6053314 21.17625,7.10703459 17.33775,6 Z M10.7426407,11.2426407 L9.91203721,13.348664 C9.82491348,13.5695691 9.66258513,13.7510091 9.45568596,13.8623501 L9.34866397,13.9120372 L7.24264069,14.7426407 L9.34866397,15.5732442 C9.56956913,15.6603679 9.75100912,15.8226962 9.86235012,16.0295954 L9.91203721,16.1366174 L10.742,18.241 L11.5732442,16.1366174 C11.6603679,15.9157122 11.8226962,15.7342723 12.0295954,15.6229313 L12.1366174,15.5732442 L14.2426407,14.7426407 L12.1366174,13.9120372 C11.9157122,13.8249135 11.7342723,13.6625851 11.6229313,13.455686 L11.5732442,13.348664 L10.7426407,11.2426407 Z M14.8284271,6.82842712 L14.139245,8.57587176 C14.0521213,8.79677692 13.8897929,8.97821691 13.6828938,9.08955791 L13.5758718,9.139245 L11.8284271,9.82842712 L13.5758718,10.5176092 C13.7967769,10.604733 13.9782169,10.7670613 14.0895579,10.9739605 L14.139245,11.0809825 L14.8284271,12.8284271 L15.5176092,11.0809825 C15.604733,10.8600773 15.7670613,10.6786373 15.9739605,10.5672963 L16.0809825,10.5176092 L17.8284271,9.82842712 L16.0809825,9.139245 C15.8600773,9.05212128 15.6786373,8.88979292 15.5672963,8.68289376 L15.5176092,8.57587176 L14.8284271,6.82842712 Z M9.32842712,6.82842712 L8.78066636,8.21729312 C8.69354263,8.43819828 8.53121428,8.61963827 8.32431511,8.73097927 L8.21729312,8.78066636 L6.82842712,9.32842712 L8.21729312,9.87618789 C8.43819828,9.96331162 8.61963827,10.12564 8.73097927,10.3325391 L8.78066636,10.4395611 L9.32842712,11.8284271 L9.87618789,10.4395611 C9.96331162,10.218656 10.12564,10.037216 10.3325391,9.92587498 L10.4395611,9.87618789 L11.8284271,9.32842712 L10.4395611,8.78066636 C10.218656,8.69354263 10.037216,8.53121428 9.92587498,8.32431511 L9.87618789,8.21729312 L9.32842712,6.82842712 Z"/>
</svg>

<svg xmlns="http://www.w3.org/2000/svg" width="30" height="30" viewBox="0 0 30 30"><path fill-rule="evenodd" d="M25 0a5 5 0 0 1 5 5v20a5 5 0 0 1-5 5H5a5 5 0 0 1-5-5V5a5 5 0 0 1 5-5h20Zm-7.662 6c.707 1.223 1.142 2.626 1.142 4.142a8.336 8.336 0 0 1-8.336 8.336c-1.516 0-2.918-.435-4.144-1.14C7.107 21.174 10.607 24 14.802 24 19.882 24 24 19.88 24 14.8c0-4.195-2.824-7.693-6.662-8.8Zm-6.595 5.243-.831 2.106a1 1 0 0 1-.456.513l-.107.05-2.106.83 2.106.831a1 1 0 0 1 .513.457l.05.107.83 2.104.831-2.104a1 1 0 0 1 .457-.514l.107-.05 2.106-.83-2.106-.831a1 1 0 0 1-.514-.456l-.05-.107-.83-2.106Zm4.085-4.415-.689 1.748a1 1 0 0 1-.456.514l-.107.05-1.748.688 1.748.69a1 1 0 0 1 .514.456l.05.107.688 1.747.69-1.747a1 1 0 0 1 .456-.514l.107-.05 1.747-.689-1.747-.689a1 1 0 0 1-.514-.456l-.05-.107-.689-1.748Zm-5.5 0-.547 1.39a1 1 0 0 1-.457.513l-.107.05-1.389.547 1.39.548a1 1 0 0 1 .513.457l.05.107.547 1.388.548-1.388a1 1 0 0 1 .457-.514l.107-.05 1.388-.548-1.388-.547a1 1 0 0 1-.514-.457l-.05-.107-.548-1.389Z"/></svg>
